X: 28324
T: Mudgee Schottische, The
R: barndance
M: 4/4
K: Gmajor
|:GA|B2 B2 c2 ce|d2 G2 GDGA|B2- BB c/d/c Bc|dedB ADGA|
B2 GB cBce|d2 G2 G2 GA|B2 BG A2 GF|G2 B2 G2:|
|:ef|g2 G2 e2 G2|efed B2 GB|d2 cB A2 FA|c2 BA BGBd|
gG G2 eG GG|e2 ed BdGB|d2 dB c2 BA|G2 GG G2:|

